public/img/ico-search.svg

<svg xmlns="http://www.w3.org/2000/svg" preserveAspectRatio="xMidYMid" width="24" height="24" viewBox="0 0 24 24"><defs><style>.cls-1{fill:#9e9e9e;fill-rule:evenodd}</style></defs><path d="M16.687 2.85C12.872-.965 6.664-.965 2.849 2.85c-3.813 3.815-3.813 10.022 0 13.837 3.397 3.397 8.688 3.76 12.5 1.108.08.38.264.741.558 1.037l4.556 4.553a2.064 2.064 0 0 0 2.923 0 2.064 2.064 0 0 0 0-2.922l-4.556-4.556a2.043 2.043 0 0 0-1.036-.557c2.654-3.813 2.29-9.101-1.107-12.5zm-1.754 12.084c-2.848 2.847-7.482 2.847-10.33 0-2.846-2.848-2.846-7.481 0-10.329 2.848-2.848 7.482-2.848 10.33 0s2.848 7.481 0 10.329z" class="cls-1"/></svg>

<svg xmlns="http://www.w3.org/2000/svg" xmlns:xlink="http://www.w3.org/1999/xlink" preserveAspectRatio="xMidYMid" width="24" height="24" viewBox="0 0 24 24">
  <defs>
    <style>
      .cls-1 {
        fill: #9e9e9e;
        fill-rule: evenodd;
      }
    </style>
  </defs>
  <path d="M16.687,2.850 C12.872,-0.965 6.664,-0.965 2.849,2.850 C-0.964,6.665 -0.964,12.872 2.849,16.687 C6.246,20.084 11.537,20.447 15.349,17.795 C15.429,18.175 15.613,18.536 15.907,18.832 L20.463,23.385 C21.271,24.194 22.579,24.194 23.386,23.385 C24.194,22.578 24.194,21.270 23.386,20.463 L18.830,15.907 C18.537,15.613 18.174,15.429 17.794,15.350 C20.448,11.537 20.084,6.249 16.687,2.850 ZM14.933,14.934 C12.085,17.781 7.451,17.781 4.603,14.934 C1.757,12.086 1.757,7.453 4.603,4.605 C7.451,1.757 12.085,1.757 14.933,4.605 C17.781,7.453 17.781,12.086 14.933,14.934 Z" class="cls-1"/>
</svg>
